icons/svg/mouse-variant.svg

﻿<?xml version="1.0" encoding="utf-8"?>
<!DOCTYPE svg PUBLIC "-//W3C//DTD SVG 1.1//EN" "http://www.w3.org/Graphics/SVG/1.1/DTD/svg11.dtd">
<svg xmlns="http://www.w3.org/2000/svg" xmlns:xlink="http://www.w3.org/1999/xlink" version="1.1" baseProfile="full" width="24" height="24" viewBox="0 0 24.00 24.00" enable-background="new 0 0 24.00 24.00" xml:space="preserve">
	<path fill="#000000" fill-opacity="1" stroke-width="0.2" stroke-linejoin="round" d="M 14,7.00001L 10,7.00001L 10,2.10003C 12.2822,2.5633 14,4.58105 14,7.00001 Z M 4,7.00001C 4,4.58105 5.71775,2.56331 7.99999,2.10004L 7.99999,7.00001L 4,7.00001 Z M 14,12C 14,14.419 12.2822,16.4367 10,16.9L 10,18C 10,19.6569 11.3431,21 13,21C 14.6568,21 16,19.6569 16,18L 16,13C 16,10.7909 17.7909,9.00001 20,9.00001L 22,9.00001L 21,10L 22,11L 20,11C 18.8954,11 18,11.8954 18,13L 18,13L 18,18C 18,20.7614 15.7614,23 13,23C 10.2386,23 7.99999,20.7614 7.99999,18L 7.99999,16.9C 5.71775,16.4367 4,14.419 4,12L 4,9.00001L 14,9.00001L 14,12 Z "/>
</svg>

<svg xmlns="http://www.w3.org/2000/svg" version="1.1" baseProfile="full" width="24" height="24" viewBox="0 0 24.00 24.00" xml:space="preserve"><path fill="#000" fill-opacity="1" stroke-width=".2" stroke-linejoin="round" d="M14 7h-4V2.1c2.282.463 4 2.48 4 4.9zM4 7c0-2.42 1.718-4.437 4-4.9V7H4zm10 5c0 2.42-1.718 4.437-4 4.9V18c0 1.657 1.343 3 3 3s3-1.343 3-3v-5c0-2.21 1.79-4 4-4h2l-1 1 1 1h-2c-1.105 0-2 .895-2 2v5c0 2.76-2.24 5-5 5s-5-2.24-5-5v-1.1c-2.282-.463-4-2.48-4-4.9V9h10v3z"/></svg>
